X:145
T:the Gingersnap Reel
C:Kim Fulton-Bennett
L:1/8
M:4/4
O:USA
Q:120
R:Reel
Z:Kim <kfb@pacbell.net>
%%Copyright:Kim Fulton-Bennett
%%TUNEURL: http://www.leeds.ac.uk/music/Info/RRTuneBk/gettune/00000639.html
%%ID:00000639
K:D
~E2GEBE~GE|~D2FDAD~FD|~E2GEBE~GE|ABcdAFED:|
~B2GBFBEB|~A2FAEADA|~BABcdefe|dBcA~BAFA:|
~B2eBfBeB|efgab2ag|f2dfcdA2|defga2gf|
e2gebefe|d2fdadBA|edefg2fe|dBAGFGAF:||
